X:327
T:Reel 327
M:4/4
K:Gmaj
L:1/8
d>G (3GGG G>d (3BAG |d>G (3GFG d2cBcA|G>g (3gfg d>c (3BAG |ABcd edcBA:||2 (3def gb agfe|dcBA G2|de|f2ed e>f (3gfe |d>g (3gfg a2a2||b>d' (3gfg f>d (3cBA |dcBc d2 (3def :||2df (3fed g>B (3efg |agfg dcB2|
